svgs/sharp-solid/coffin-cross.svg

<svg xmlns="http://www.w3.org/2000/svg" viewBox="0 0 384 512"><!--! Font Awesome Pro 6.6.0 by @fontawesome - https://fontawesome.com License - https://fontawesome.com/license (Commercial License) Copyright 2024 Fonticons, Inc. --><path d="M104 512L0 144 112 0 272 0 384 144 280 512l-176 0zM216 120l0-24-48 0 0 24 0 40-48 0-24 0 0 48 24 0 48 0 0 120 0 24 48 0 0-24 0-120 48 0 24 0 0-48-24 0-48 0 0-40z"/></svg>

<svg xmlns="http://www.w3.org/2000/svg" viewBox="0 0 384 512"><!--! Font Awesome Pro 6.5.2 by @fontawesome - https://fontawesome.com License - https://fontawesome.com/license (Commercial License) Copyright 2024 Fonticons, Inc. --><path d="M104 512L0 144 112 0H272L384 144 280 512H104zM216 120V96H168v24 40H120 96v48h24 48V328v24h48V328 208h48 24V160H264 216V120z"/></svg>
